!!!!SEGMENT: pl-kk--kk-i-7--051-002_palestrina-giovanni-pierluigi-da--missa-de-b-virgine-maria-et-in-terra.krn
!!!cenid: 16xx:868
!!!COM: Palestrina, Giovanni Pierluigi da
!!!COM-rismID:
!!!CDT: ~1525-1594/02/02
!!!CNT: Italian
!!!OPR: Missa de B Virgine Maria
!!!OTL: Et in terra
!!!OMV: 002
!!!PDT:
!!!AGN: Sacred; Mass
!!!SMS-siglum: PL-Kk
!!!SMS-shelfmark: Kk.I.7
!!!SMS-shelfwork: 051-002 M
!!!SMS-variant:
!!!SMS-altvar:
!!!NIFC-rismSourceID: 300258128
!!!NIFC-islandoraID: pl-kk:1956
!!!URL-pdf-islandora: https://repozytorium.nifc.pl/islandora/object/pl-kk%3A1956/datastream/PDF/view
!!!URL-scan: https://polish.musicsources.pl/pl/lokalizacje/galeria/rekopisy/6140 @EN{Scan on Polish Music Herritage in Open Access Website} @PL{Skany w portalu Dziedzictwo Muzyki Polskiej w otwartym dostępie}
!!!ONB-nifc: UWAGA: C (skan 0047-0048, s.88-89), A (0131, s.83), T (0207-0208, s.77-78), B (0296, s.78-79). Części Mszy: 1. Kyrie, 2. Et in terra, 3. Sanctus, 4. Agnus Dei. "Benedictus" partii S znajduje się na luźnej kartce włożonej między strony 88-89. "Agnus II" rozpisane na 5 głosów. Dodatkowy głos zapisany w księdze A na stronie 85
!!!AIN: 1 alto 1 bass 1 soprn 1 tenor
!!!key:
**kern	**text	**kern	**text	**kern	**text	**kern	**text
*part4	*part4	*part3	*part3	*part2	*part2	*part1	*part1
*staff4	*staff4	*staff3	*staff3	*staff2	*staff2	*staff1	*staff1
*Ibass	*	*Itenor	*	*Ialto	*	*Isoprn	*
*I"BASSVS.	*	*I"TENOR.	*	*I"ALTVS.	*	*I"CANTVS.	*
*I'B	*	*I'T	*	*I'A	*	*I'S	*
*clefC4	*	*clefC3	*	*clefC2	*	*clefG2	*
*k[bn]	*	*k[bn]	*	*k[bn]	*	*k[bn]	*
*C:	*	*C:	*	*C:	*	*C:	*
*M2/1	*	*M2/1	*	*M2/1	*	*M2/1	*
*met(C|)	*	*met(C|)	*	*met(C|)	*	*met(C|)	*
=1-	=1-	=1-	=1-	=1-	=1-	=1-	=1-
!	!	!	!	!LO:TX:t=P:problem=przy kluczu kasowniki Bn i bn (jeden nad drugim)	!	!	!
!LO:TX:t=P:problem=kreska pseudotaktowa	!	!	!	!LO:TX:t=P:problem=kreska pseudotaktowa	!	!	!
0r	.	1d	Et	1r	.	0r	.
!	!	!LO:TX:t=P:problem=♮ above	!	!	!	!	!
.	.	1en	in	0g	Et	.	.
=2-	=2-	=2-	=2-	=2-	=2-	=2-	=2-
1G	Et	1Bn	ter-	.	.	1dd	Et
1C	in	2c\	-ra	1g	in	1ee	in
.	.	2.e\	pax	.	.	.	.
=3-	=3-	=3-	=3-	=3-	=3-	=3-	=3-
*	*	*	*	*	*	*2\right	*
!LO:TX:t=P:problem=kreska pseudotaktowa	!	!	!	!	!	!	!
1E	ter-	.	.	1g	ter-	2bn\	ter-
.	.	4d\	.	.	.	.	.
!	!	!	!	!	!	!LO:TX:t=P:problem=kreska pseudotaktowa	!
.	.	1c	.	.	.	2cc\	-ra
!LO:TX:t=P:problem=cezura na 2. linii	!	!	!	!LO:TX:t=P:problem=kreska pseudotaktowa	!	!	!
1D,	-ra	.	.	1f	-ra	1dd	pax
!	!	!LO:TX:t=P:problem=kreska pseudotaktowa	!	!	!	!	!
.	.	2B/	.	.	.	.	.
=4-	=4-	=4-	=4-	=4-	=4-	=4-	=4-
*	*	*2\right	*	*2\right	*	*	*
!LO:TX:t=P:problem=kreska pseudotaktowa	!	!	!	!	!	!	!
1C	pax	2c\	.	2.e\	pax	2.g/	ho-
.	.	2.e\	ho-	.	.	.	.
.	.	.	.	4f\	.	4a/	.
0r	.	.	.	2g\	ho-	2b\	.
.	.	4d/	.	.	.	.	.
.	.	4c/	.	1a\	.	1cc\	.
.	.	4B/	.	.	.	.	.
=5-	=5-	=5-	=5-	=5-	=5-	=5-	=5-
.	.	2A/	.	.	.	.	.
!	!	!	!	!	!	!LO:TX:t=P:problem=kreska pseudotaktowa	!
.	.	2B/	.	1g	-mi-	2b/	.
!LO:TX:t=P:problem=kreska pseudotaktowa	!	!	!	!	!	!	!
1r	.	2c\	-mi-	.	.	2a/	-mi-
!	!	!LO:TX:t=P:problem=kreska pseudotaktowa	!	!	!	!	!
.	.	2d\	-ni-	2f#X\	-ni-	2a/	-ni-
=6-	=6-	=6-	=6-	=6-	=6-	=6-	=6-
!	!	!LO:TX:t=P:problem=cezura na 4. linii	!	!LO:TX:t=P:problem=kreska pseudotaktowa	!	!LO:TX:t=P:problem=kreska pseudotaktowa	!
1c	bo-	2e,\	-bus	1g	-b(us)	1g	-b(us)
.	.	1g	bo-	.	.	.	.
!LO:TX:t=P:problem=cezura na 3. linii	!	!	!	!	!	!	!
1A,	-nae	.	.	1rb	.	2r	.
.	.	2f\	-nae	.	.	1cc\	bo-
=7-	=7-	=7-	=7-	=7-	=7-	=7-	=7-
!LO:TX:t=P:problem=kreska pseudotaktowa	!	!	!	!	!	!	!
1G	vo-	2e\	vo-	1g	bo-	.	.
!	!	!	!	!	!	!LO:TX:t=P:problem=♮ above	!
.	.	2.d\	-lun-	.	.	2bn\	-nae
2A/	-lun-	.	.	1e	-nae	2a/	.
.	.	4c/	.	.	.	.	.
!	!	!	!	!	!	!LO:TX:t=P:problem=kreska pseudotaktowa	!
2E/	-ta-	1c\	ta-	.	.	2g/	Vo-
=8-	=8-	=8-	=8-	=8-	=8-	=8-	=8-
2F/	.	.	.	2d/	Vo-	2a/	-lun-
2G/	.	2Bn/	.	2d/	-lun-	1g	-ta-
!LO:TX:t=P:problem=kreska pseudotaktowa	!	!	!	!	!	!	!
1D	-tis.	1A	.	1d	-ta-	.	.
!	!	!	!	!	!	!LO:TX:t=P:problem=# above	!
.	.	.	.	.	.	2f#X/	.
=9-	=9-	=9-	=9-	=9-	=9-	=9-	=9-
!	!	!LO:TX:t=P:problem=kreska pseudotaktowa	!	!	!	!LO:TX:t=P:problem=kreska pseudotaktowa	!
2rG	.	1G	-tis	2.B/	.	1g	-tis
1G	Lau-	.	.	.	.	.	.
.	.	.	.	4c/	.	.	.
!	!	!LO:LB:g=original	!	!LO:TX:t=P:problem=kreska pseudotaktowa	!	!LO:TX:t=P:problem=kreska pseudotaktowa	!
.	.	2r	.	1d	-tis	1r	.
2F/	-da-	2d\	Lau-	.	.	.	.
=10-	=10-	=10-	=10-	=10-	=10-	=10-	=10-
2E/	.	2c\	-da-	0r	.	2r	.
!LO:TX:t=P:problem=kreska pseudotaktowa	!	!	!	!	!	!	!
2D/	-m(us)	2B/	-m(us)	.	.	1dd	be-
*lig	*	*lig	*	*	*	*	*
1F	Te	1A	Te	.	.	.	.
.	.	.	.	.	.	2cc\	-ne-
=11-	=11-	=11-	=11-	=11-	=11-	=11-	=11-
!LO:TX:t=P:problem=kreska pseudotaktowa	!	!LO:TX:t=P:problem=kreska pseudotaktowa	!	!	!	!LO:TX:t=P:problem=♮ above	!
1G	.	1G	.	2r	.	1bn	-di-
.	.	.	.	1g	be-	.	.
*Xlig	*	*Xlig	*	*	*	*	*
!	!	!	!	!	!	!LO:TX:t=P:problem=kreska pseudotaktowa	!
00r	.	1d	be-	.	.	1a	-ci-
!	!	!	!	!LO:TX:t=P:problem=kreska pseudotaktowa	!	!	!
.	.	.	.	2fny\	-ne-	.	.
=12-	=12-	=12-	=12-	=12-	=12-	=12-	=12-
.	.	2c/	-ne-	2e/	-di-	2cc\	-mus
.	.	2B/	-di-	2d/	-ci-	1dd	Te
.	.	2A/	-ci-	1f	-m(us)	.	.
.	.	2A/	-m(us)	.	.	1cc\	a-
=13-	=13-	=13-	=13-	=13-	=13-	=13-	=13-
*	*	*	*	*lig	*	*	*
!	!	!LO:TX:t=P:problem=cezura na 1. linii	!	!	!	!	!
.	.	2G,/	Te	1g	Te,	.	.
!	!	!	!	!	!	!LO:TX:t=P:problem=kreska pseudotaktowa	!
.	.	1g	a-	.	.	2b\	-do-
!	!	!	!	!LO:TX:t=P:problem=kreska pseudotaktowa	!	!	!
2r	.	.	.	1d	.	0a	-ra-
1d\	a-	2f\	-do-	.	.	.	.
*	*	*	*	*Xlig	*	*	*
=14-	=14-	=14-	=14-	=14-	=14-	=14-	=14-
.	.	1e	-ra-	1r	.	.	.
*2\right	*	*	*	*	*	*	*
2c\	-do-	.	.	.	.	.	.
!LO:TX:t=P:problem=♮ above	!	!	!	!	!	!	!
2Bn\	-ra-	2d\	.	2r	.	2.g/	.
!	!	!LO:TX:t=P:problem=kreska pseudotaktowa	!	!	!	!	!
2.c\	.	2e\	-mus	2g\	a-	.	.
.	.	.	.	.	.	4fny/	.
=15-	=15-	=15-	=15-	=15-	=15-	=15-	=15-
.	.	1c	a-	1e	-do-	2g/	.
4B\	.	.	.	.	.	.	.
*	*	*	*	*	*	*lig	*
4A/	.	.	.	.	.	1a	.
4G/	.	.	.	.	.	.	.
2F/	.	2d\	-do-	2f\	-ra-	.	.
!LO:TX:t=P:problem=kreska pseudotaktowa	!	!	!	!	!	!	!
2G/	-mus	2.e\	-ra-	2e/	-m(us)	1g/	-mus
*	*	*	*	*	*	*Xlig	*
=16-	=16-	=16-	=16-	=16-	=16-	=16-	=16-
!	!	!	!	!LO:TX:t=P:problem=kreska pseudotaktowa	!	!	!
1A	Te	.	.	1c	Te	.	.
.	.	4d\	.	.	.	.	.
!	!	!	!	!	!	!LO:TX:t=P:problem=# above	!
.	.	1c	.	.	.	2f#X/	.
!LO:TX:t=P:problem=kreska pseudotaktowa	!	!	!	!	!	!LO:TX:t=P:problem=kreska pseudotaktowa	!
1G	.	.	.	2rd	.	0g	Te
.	.	2B/	-m(us)	2d/	glo-	.	.
!	!	!	!	!	!	!LO:LB:g=original	!
=17-	=17-	=17-	=17-	=17-	=17-	=17-	=17-
2rG	.	2c/	.	2e/	-ri-	.	.
*	*	*	*	*custos:c	*	*	*
!LO:TX:t=P:problem=kreska pseudotaktowa	!	!LO:TX:t=P:problem=kreska pseudotaktowa	!	!LO:TX:t=P:problem=kreska pseudotaktowa	!	!	!
2G/	glo-	2B/	Te.	2d/	-fi-	.	.
!LO:LB:g=original	!	!	!	!LO:LB:g=original	!	!LO:TX:t=P:problem=kreska pseudotaktowa	!
2A/	-ri-	1r	.	2c/	-ca-	00r	.
2G/	-fi-	.	.	2B/	.	.	.
=18-	=18-	=18-	=18-	=18-	=18-	=18-	=18-
2F/	-ca-	2rA	.	2A/	.	.	.
!LO:TX:t=P:problem=kreska pseudotaktowa	!	!	!	!	!	!	!
2E/	.	2G/	Gra-	2c/	-m(us)	.	.
!	!	!	!	!LO:TX:t=P:problem=kreska pseudotaktowa	!	!	!
2D/	-mus	1A	-ti-	1d	Te	.	.
2F/	.	.	.	.	.	.	.
=19-	=19-	=19-	=19-	=19-	=19-	=19-	=19-
*lig	*	*	*	*	*	*	*
!	!	!LO:TX:t=P:problem=kreska pseudotaktowa	!	!	!	!	!
1G	Te.	1Bn	-as	2rd	.	.	.
.	.	.	.	2d/	Gra-	.	.
!LO:TX:t=P:problem=kreska pseudotaktowa	!	!	!	!	!	!	!
1C	.	1c	a-	1e	-ti-	1g	Gra-
*Xlig	*	*	*	*	*	*	*
=20-	=20-	=20-	=20-	=20-	=20-	=20-	=20-
!LO:TX:t=P:problem=kreska pseudotaktowa	!	!	!	!	!	!	!
0r	.	2A/	-gi-	2f\	-as	2a/	-ti-
!	!	!	!	!	!	!LO:TX:t=P:problem=kreska pseudotaktowa	!
.	.	2G/	-m(us)	2g\	a-	2bn\	-as
.	.	2c\	Ti-	2e\	-gi-	2cc\	a-
!	!	!	!	!LO:TX:t=P:problem=kreska pseudotaktowa	!	!	!
.	.	1d\	-bi	2f\	-m(us)	2a/	-gi-
=21-	=21-	=21-	=21-	=21-	=21-	=21-	=21-
!	!	!	!	!	!	!LO:TX:t=P:problem=kreska pseudotaktowa	!
1G	prop-	.	.	4g\	Ti-	1g	-m(us)
.	.	.	.	4f\	.	.	.
!	!	!LO:TX:t=P:problem=kreska pseudotaktowa	!	!	!	!	!
.	.	2g\	prop-	4e\	.	.	.
.	.	.	.	4d/	.	.	.
2A\	-ter	2f\	-ter	1c	.	1cc	Ti-
1c\	mag-	2e\	mag-	.	.	.	.
=22-	=22-	=22-	=22-	=22-	=22-	=22-	=22-
!	!	!	!	!LO:TX:t=P:problem=cezura na 1. linii	!	!LO:TX:t=P:problem=kreska pseudotaktowa	!
.	.	2d\	-nam	2G,/	-bi	1dd	-bi
!LO:TX:t=P:problem=kreska pseudotaktowa	!	!	!	!	!	!	!
2B\	nam	2d\	tu-	2g\	prop-	.	.
!	!	!	!	!	!	!LO:TX:t=P:problem=kreska pseudotaktowa	!
1A	glo-	2c\	.	2a\	-ter	1r	.
*	*	*custos:e	*	*	*	*	*
!	!	!LO:TX:t=P::problem=kreska pseudotaktowa&colon;między nutą a kropką, połączone ligaturą	!	!LO:TX:t=P:problem=kreska pseudotaktowa	!	!	!
.	.	2.e\	.	2cc\	mag-	.	.
!	!	!LO:LB:g=original	!	!	!	!	!
=23-	=23-	=23-	=23-	=23-	=23-	=23-	=23-
!	!	!	!	!LO:TX:t=P:problem=cezura na 5. linii	!	!	!
2G/	-ri-	.	.	2b,\	-na(m)	1dd	prop-
.	.	4d\	.	.	.	.	.
!LO:TX:t=P:problem=kreska pseudotaktowa	!	!	!	!	!	!	!
2F/	-am	1d	.	2.a\	glo-	.	.
1E	tu-	.	.	.	.	2ee\	-ter
.	.	.	.	4g\	.	.	.
.	.	2c\	.	2g\	-ri-	1gg\	mag-
=24-	=24-	=24-	=24-	=24-	=24-	=24-	=24-
!LO:TX:t=P:problem=kreska pseudotaktowa	!	!	!	!	!	!	!
1D	-am	1d	.	2b-X\	-a(m)	.	.
.	.	.	.	1a	tu-	2ff\	-na(m)
!LO:TX:t=P:problem=kreska pseudotaktowa	!	!LO:TX:t=P:problem=kreska pseudotaktowa	!	!	!	!	!
0r	.	1c	-am	.	.	2.ee\	glo-
.	.	.	.	4g\	.	.	.
!	!	!	!	!LO:TX:t=P:problem=kreska pseudotaktowa	!	!LO:TX:t=P:problem=kreska pseudotaktowa	!
.	.	.	.	4f\	.	4dd\	-ri-
=25-	=25-	=25-	=25-	=25-	=25-	=25-	=25-
.	.	0r	.	4e\	.	2cc\	-am
.	.	.	.	4f\	.	.	.
.	.	.	.	1g	.	2b\	tu-
!	!	!	!	!	!	!LO:TX:t=P:problem=kreska pseudotaktowa	!
1d	Do-	.	.	.	.	1a	-am
.	.	.	.	2f\	.	.	.
=26-	=26-	=26-	=26-	=26-	=26-	=26-	=26-
2c\	-mi-	1g	Do-	2e/	.	2r	.
!LO:TX:t=P:problem=kreska pseudotaktowa	!	!	!	!LO:TX:t=P:problem=kreska pseudotaktowa	!	!	!
2B\	-ne	.	.	2d/	-am	1dd	Do-
2.A/	DE-	2f\	-mi-	2r	.	.	.
!	!	!LO:TX:t=P:problem=kreska pseudotaktowa	!	!	!	!	!
.	.	2e\	-ne	1a\	Do-	1cc\	-mi-
4G/	.	.	.	.	.	.	.
=27-	=27-	=27-	=27-	=27-	=27-	=27-	=27-
2F/	.	1d	De-	.	.	.	.
!	!	!	!	!	!	!LO:TX:t=P:problem=kreska pseudotaktowa	!
2G/	.	.	.	1g	-mi-	2b/	-ne
!LO:TX:t=P:problem=kreska pseudotaktowa	!	!LO:TX:t=P:problem=cezura na 4. linii	!	!	!	!	!
1D	-US	2d,\	-(us)	.	.	1a	De-
!	!	!LO:TX:t=P:problem=kreska pseudotaktowa	!	!	!	!	!
.	.	2d\	Rex	2f\	-ne	.	.
=28-	=28-	=28-	=28-	=28-	=28-	=28-	=28-
!	!	!	!	!	!	!LO:TX:t=P:problem=cezura na 1. linii	!
2rG	.	2.g\	cae-	2e/	De-	2g,/	-(us)
!	!	!	!	!LO:TX:t=P:problem=kreska pseudotaktowa	!	!	!
1G	Rex	.	.	2d/	-(us)	2dd\	Rex
.	.	4f\	.	.	.	.	.
.	.	2e\	.	2r	.	2.gg\	cae-
2G/	cae-	2d\	.	2g\	Rex	.	.
!	!	!	!	!	!	!LO:TX:t=P:problem=kreska pseudotaktowa	!
.	.	.	.	.	.	4ff\	.
=29-	=29-	=29-	=29-	=29-	=29-	=29-	=29-
2c\	-le-	2c\	-le-	2g\	cae-	2ee\	-les-
2B\	.	2d\	.	2g\	-le-	1dd	.
!LO:TX:t=P:problem=cezura na 1. linii	!	!	!	!LO:TX:t=P:problem=kreska pseudotaktowa	!	!	!
2A,\	-stis	1e	.	1a	-ſtis	.	.
!LO:TX:t=P:problem=kreska pseudotaktowa	!	!	!	!	!	!	!
2A\	De-	.	.	.	.	2cc\	.
=30-	=30-	=30-	=30-	=30-	=30-	=30-	=30-
!	!	!	!	!	!	!LO:TX:t=P:problem=cezura na 3. linii	!
!	!	!LO:TX:t=P:problem=kreska pseudotaktowa	!	!	!	!LO:TX:t=P:problem=kreska pseudotaktowa	!
2Bn\	-us	1d	-stis	2rd	.	1dd,	-tis
2d\	Pa-	.	.	2d/	De-	.	.
2c\	-ter	0r	.	2e\	-us	1g	De-
!LO:TX:t=P:problem=kreska pseudotaktowa	!	!	!	!	!	!	!
2B\	om-	.	.	1g\	Pa-	.	.
=31-	=31-	=31-	=31-	=31-	=31-	=31-	=31-
2A\	-ni-	.	.	.	.	2a/	-(us)
!	!	!	!	!LO:TX:t=P:problem=kreska pseudotaktowa	!	!	!
2A\	-po-	.	.	2f\	.	1cc	Pa-
!LO:TX:t=P:problem=kreska pseudotaktowa	!	!	!	!LO:LB:g=original	!	!	!
1G	-tens	2rA	.	2e/	-ter	.	.
.	.	2G/	De-	2d/	o-	2b/	-ter
!LO:LB:g=original	!	!	!	!	!	!	!
=32-	=32-	=32-	=32-	=32-	=32-	=32-	=32-
!LO:TX:t=P:problem=kreska pseudotaktowa	!	!	!	!	!	!	!
0r	.	2A/	-(us)	2.c/	.	1a	om-
.	.	2c/	Pa-	.	.	.	.
.	.	.	.	4d/	.	.	.
.	.	2c/	-ter	4e\	.	2g/	-ni-
.	.	.	.	4f\	.	.	.
.	.	2B/	om-	1g\	-mni-	2g/	-po-
=33-	=33-	=33-	=33-	=33-	=33-	=33-	=33-
*	*	*	*	*	*	*custos:a	*
!	!	!	!	!	!	!LO:TX:t=P:problem=kreska pseudotaktowa	!
2rd	.	2c\	-ni-	.	.	0a	-tens
!	!	!	!	!LO:TX:t=P:problem=kreska pseudotaktowa	!	!	!
1d	Do-	2d\	-po-	2f\	-po-	.	.
!	!	!LO:TX:t=P:problem=kreska pseudotaktowa	!	!LO:TX:t=P:problem=cezura na 3. linii	!	!	!
.	.	1A	-tens	2e,/	-tens	.	.
!LO:TX:t=P:problem=kreska pseudotaktowa	!	!	!	!	!	!	!
2c\	-mi-	.	.	2e/	D(o-	.	.
!	!	!	!	!	!	!LO:LB:g=original	!
=34-	=34-	=34-	=34-	=34-	=34-	=34-	=34-
2B\	-ne	0r	.	2d/	-mi)-	2ra	.
2A\	.	.	.	2c/	-ne	2a/	Do-
0B	Fi-	.	.	0d	Fi-	2g/	-mi-
!	!	!	!	!	!	!LO:TX:t=P:problem=kreska pseudotaktowa	!
.	.	.	.	.	.	2fny/	-ne
=35-	=35-	=35-	=35-	=35-	=35-	=35-	=35-
.	.	2r	.	.	.	1g	Fi-
.	.	1d	Do-	.	.	.	.
!LO:TX:t=P:problem=kreska pseudotaktowa	!	!	!	!LO:TX:t=P:problem=kreska pseudotaktowa	!	!	!
1A	-li	.	.	1e	-li	2a/	-li
.	.	2c/	-mi-	.	.	2cc\	U-
=36-	=36-	=36-	=36-	=36-	=36-	=36-	=36-
1rA	.	2B/	-ne	2rd	.	2dd\	-ni-
!	!	!LO:TX:t=P:problem=kreska pseudotaktowa	!	!	!	!	!
.	.	2A/	Fi-	2c/	U-	2.ee\	-ge-
2rG	.	1B	.	1d	-ni-	.	.
.	.	.	.	.	.	4dd\	.
!	!	!	!	!	!	!LO:TX:t=P:problem=kreska pseudotaktowa	!
2G/	U-	.	.	.	.	2dd\	-ni-
=37-	=37-	=37-	=37-	=37-	=37-	=37-	=37-
!	!	!LO:TX:t=P:problem=cezura na 2. linii	!	!	!	!	!
2A\	.	2A,/	-li	4f\	-ge-	4cc\	-te
.	.	.	.	4e\	.	4a/	.
!LO:TX:t=P:problem=kreska pseudotaktowa	!	!	!	!	!	!	!
2A\	-ni-	2c\	U-	1a	.	2.ee\	U-
!	!	!LO:TX:t=P:problem=kreska pseudotaktowa	!	!	!	!	!
2B\	-ge-	1d	-ni-	.	.	.	.
.	.	.	.	.	.	4dd\	-ni-
!	!	!	!	!	!	!LO:TX:t=P::problem=kreska pseudotaktowa&colon;między nutą a kropką, połączone ligaturą	!
2B/	-ni-	.	.	2g\	-ni-	2.dd\	-ge-
=38-	=38-	=38-	=38-	=38-	=38-	=38-	=38-
!LO:TX:t=P:problem=kreska pseudotaktowa	!	!	!	!LO:TX:t=P:problem=kreska pseudotaktowa	!	!	!
1A	-te	2e\	-ge-	1a	-te	.	.
.	.	.	.	.	.	4cc\	-ni-
!	!	!	!	!	!	!LO:TX:t=P:problem=cezura na 2. linii	!
.	.	2e\	-ni-	.	.	2cc,\	-te
!	!	!LO:TX:t=P:problem=cezura na 3. linii	!	!	!	!	!
2.D/	Je-	2d,\	-te	2r	.	2dd\	Je-
.	.	1f\	Je-	1a\	JE-	2dd\	-su
4E/	.	.	.	.	.	.	.
=39-	=39-	=39-	=39-	=39-	=39-	=39-	=39-
!	!	!	!	!	!	!LO:SIC:l:v:s=Chris	!
2F/	.	.	.	.	.	1cc	x-
!	!	!LO:TX:t=P:problem=kreska pseudotaktowa	!	!	!	!	!
2C/	-su	2e\	-su	1g	-SU	.	.
!LO:SIC:l:v:s=Chris	!	!	!	!	!	!	!
1D	X-	2.d\	Chri-	.	.	2a/	.
!	!	!	!	!LO:SIC:l:v:s=Chris	!	!	!
!	!	!	!	!LO:TX:t=P:problem=kreska pseudotaktowa	!	!	!
.	.	.	.	2f\	X-	1dd\	-te
.	.	4c/	.	.	.	.	.
=40-	=40-	=40-	=40-	=40-	=40-	=40-	=40-
!LO:TX:t=P:problem=kreska pseudotaktowa	!	!	!	!LO:TX:t=P:problem=cezura na 4. linii	!	!	!
1G	-te	4B/	.	2g,\	-te	.	.
.	.	4c/	.	.	.	.	.
.	.	2d/	.	1g	Do-	2b\	Do-
*	*	*custos:g	*	*	*	*	*
!	!	!LO:TX:t=P:problem=cezura na 1. linii	!	!	!	!	!
!	!	!LO:TX:t=P:problem=kreska pseudotaktowa	!	!	!	!	!
00r	.	1c,	-ste	.	.	1cc	-mi-
.	.	.	.	2e\	-mi-	.	.
!	!	!LO:PB:g=original	!	!	!	!	!
=41-	=41-	=41-	=41-	=41-	=41-	=41-	=41-
!	!	!	!	!	!	!LO:TX:t=P:problem=kreska pseudotaktowa	!
.	.	2rf	.	2f\	-ne	1dd	-ne
.	.	1g	Do-	2g\	De-	.	.
!	!	!	!	!LO:TX:t=P:problem=cezura na 2. linii	!	!	!
.	.	.	.	2c,/	-(us)	1ee	De-
.	.	2e\	-mi-	1cc\	a-	.	.
=42-	=42-	=42-	=42-	=42-	=42-	=42-	=42-
.	.	2f\	-ne	.	.	1dd	-(us)
!	!	!LO:TX:t=P:problem=kreska pseudotaktowa	!	!LO:TX:t=P:problem=kreska pseudotaktowa	!	!	!
.	.	2g\	De-	2bny\	-gn(us)	.	.
!	!	!LO:TX:t=P:problem=kreska pseudotaktowa	!	!	!	!	!
!	!	!LO:TX:t=P:problem=cezura na 3. linii	!	!	!	!	!
00r	.	1c,\	-(us)	2a\	De-	2cc\	a-
.	.	.	.	1g\	.	2b\	-gn(us)
=43-	=43-	=43-	=43-	=43-	=43-	=43-	=43-
.	.	1d	A-	.	.	1a	De-
!	!	!	!	!LO:TX:t=P:problem=# above	!	!	!
.	.	.	.	2f#X\	.	.	.
!	!	!LO:TX:t=P:problem=kreska pseudotaktowa	!	!LO:TX:t=P:problem=kreska pseudotaktowa	!	!LO:TX:t=P:problem=cezura na 2. linii	!
.	.	1e\	-gnus	1g	-i	2g,/	-i
.	.	.	.	.	.	1ee\	Fi-
=44-	=44-	=44-	=44-	=44-	=44-	=44-	=44-
.	.	1f	De-	2r	.	.	.
!	!	!	!	!	!	!LO:TX:t=P:problem=kreska pseudotaktowa	!
.	.	.	.	1a	Fi-	2dd\	-li-
!	!	!LO:TX:t=P:problem=cezura na 4. linii	!	!	!	!	!
00r	.	2e,\	-i	.	.	2cc\	-us
.	.	2e\	Fi-	2g\	-li-	4b\	Pa-
.	.	.	.	.	.	4cc\	.
=45-	=45-	=45-	=45-	=45-	=45-	=45-	=45-
.	.	2d\	-li-	2fny\	-us	4dd\	.
.	.	.	.	.	.	8cc\L	.
.	.	.	.	.	.	8dd\J	.
!	!	!LO:TX:t=P:problem=kreska pseudotaktowa	!	!	!	!	!
.	.	2c\	-us	4e\	.	2.ee\	.
!	!	!	!	!LO:TX:t=P:problem=kreska pseudotaktowa	!	!	!
.	.	.	.	4f\	.	.	.
!	!	!	!	!LO:LB:g=original	!	!	!
*	*	*lig	*	*	*	*	*
.	.	1B/	Pa-	4g\	.	.	.
.	.	.	.	4f\	.	4dd\	.
.	.	.	.	4e/	Pa-	1dd\	.
.	.	.	.	4d/	.	.	.
=46-	=46-	=46-	=46-	=46-	=46-	=46-	=46-
.	.	1A	.	1e	.	.	.
!	!	!	!	!	!	!LO:TX:t=P:problem=kreska pseudotaktowa	!
!	!	!	!	!	!	!LO:TX:t=P:problem=# above	!
.	.	.	.	.	.	2cc#X\	.
*	*	*Xlig	*	*	*	*	*
!	!	!	!	!LO:TX:t=P:problem=kreska pseudotaktowa	!	!	!
2r	.	1d\	.	1f	.	2dd\	.
1d\	Fi-	.	.	.	.	1ff\	.
=47-	=47-	=47-	=47-	=47-	=47-	=47-	=47-
!	!	!LO:TX:t=P:problem=kreska pseudotaktowa	!	!	!	!	!
.	.	1A	-tris	2.a\	.	.	.
!LO:TX:t=P:problem=kreska pseudotaktowa	!	!	!	!	!	!	!
2c\	-li-	.	.	.	.	2ee\	.
.	.	.	.	8g\L	.	.	.
.	.	.	.	8a\J	.	.	.
!LO:TX:t=P:problem=cezura na 2. linii	!	!	!	!	!	!	!
2G,/	-us	2r	.	2b\	.	2dd\	.
2B-X\	Pa-	2d\	Fi-	2g\	.	1dd\	.
=48-	=48-	=48-	=48-	=48-	=48-	=48-	=48-
2A/	.	2e\	-li-	1a	.	.	.
2F/	.	2f\	-us	.	.	2ccny\	.
1G	.	2d\	Pa-	1.g	.	1bn	.
.	.	1e\	.	.	.	.	.
=49-	=49-	=49-	=49-	=49-	=49-	=49-	=49-
!	!	!	!	!	!	!LO:TX:t=P:problem=kreska pseudotaktowa	!
0A	.	.	.	.	.	[0al;	-tris.
.	.	1d	.	2f\	.	.	.
.	.	.	.	1e	.	.	.
.	.	2c\	.	.	.	.	.
=50-	=50-	=50-	=50-	=50-	=50-	=50-	=50-
!LO:TX:t=P:problem=kreska pseudotaktowa	!	!LO:TX:t=P:problem=kreska pseudotaktowa	!	!LO:TX:t=P:problem=kreska pseudotaktowa	!	!	!
0Dl;	-tris.	0dl;	-tris.	0f#Xl;	-tris.	0a]	.
!	!	!	!	!	!	!LO:PB:g=original	!
=51||	=51||	=51||	=51||	=51||	=51||	=51||	=51||
*M2/1	*	*M2/1	*	*M2/1	*	*M2/1	*
*met(C|)	*	*met(C|)	*	*met(C|)	*	*met(C|)	*
0r	.	00r	.	2r	.	1ff	Qui
.	.	.	.	2f\	Qui	.	.
.	.	.	.	2g\	tol-	2ee\	tol-
!	!	!	!	!LO:TX:t=P:problem=kreska pseudotaktowa	!	!	!
.	.	.	.	2a\	-lis	2ff\	-lis
=52-	=52-	=52-	=52-	=52-	=52-	=52-	=52-
!LO:TX:t=P:problem=kreska pseudotaktowa	!	!	!	!	!	!	!
1r	.	.	.	1b	pec-	1dd	pec-
1F	Qui	.	.	1a	-ca-	2.cc\	-ca-
!	!	!	!	!	!	!LO:TX:t=P:problem=kreska pseudotaktowa	!
.	.	.	.	.	.	4dd\	.
=53-	=53-	=53-	=53-	=53-	=53-	=53-	=53-
!	!	!LO:TX:t=P:problem=kreska pseudotaktowa	!	!	!	!	!
2G/	tol-	0r	.	2g\	-ta	2ee\	.
2A/	-lis	.	.	4f\	.	2.ff\	-ta
.	.	.	.	4e\	.	.	.
1B	pec-	.	.	1d	.	.	.
.	.	.	.	.	.	4ee\	.
.	.	.	.	.	.	1dd\	mun-
=54-	=54-	=54-	=54-	=54-	=54-	=54-	=54-
1A	-ca-	2rf	.	1e	mun-	.	.
!	!	!	!	!	!	!LO:TX:t=P:problem=kreska pseudotaktowa	!
.	.	1a	Mi-	.	.	2cc\	.
!	!	!	!	!LO:TX:t=P:problem=kreska pseudotaktowa	!	!LO:TX:t=P:problem=cezura na 2. linii	!
2F/	-ta	.	.	1d	-di	2dd,\	-di
!LO:TX:t=P:problem=kreska pseudotaktowa	!	!	!	!	!	!	!
2G/	mun-	2g\	-se-	.	.	1dd\	mi-
!LO:LB:g=original	!	!	!	!	!	!	!
=55-	=55-	=55-	=55-	=55-	=55-	=55-	=55-
!LO:TX:t=P:problem=cezura na 1. linii	!	!	!	!	!	!	!
2D,/	-di	2f\	-re-	0r	.	.	.
!LO:TX:t=P:problem=kreska pseudotaktowa	!	!	!	!	!	!	!
2A/	mi-	2.e\	-re	.	.	2cc\	-ſe-
2G/	-ſe-	.	.	.	.	2bn/	-re-
.	.	4d\	.	.	.	.	.
2F/	-re-	1d\	no-	.	.	2a/	-re
=56-	=56-	=56-	=56-	=56-	=56-	=56-	=56-
2E/	-re	.	.	2r	.	2g/	no-
!	!	!	!	!	!	!LO:TX:t=P:problem=kreska pseudotaktowa	!
2E/	no-	2c\	.	1g	Qui	2g/	-bis
!LO:TX:t=P:problem=kreska pseudotaktowa	!	!LO:TX:t=P:problem=kreska pseudotaktowa	!	!	!	!	!
1D	-bis.	1d	-bis	.	.	2r	.
.	.	.	.	2f\	.	1dd\	Qui
=57-	=57-	=57-	=57-	=57-	=57-	=57-	=57-
1r	.	2rf	.	2g\	tol-	.	.
!	!	!	!	!LO:TX:t=P:problem=kreska pseudotaktowa	!	!	!
.	.	2g\	qui	2e/	.	2cc\	tol-
2r	.	2f\	tol-	2d/	.	2dd\	.
!	!	!LO:TX:t=P:problem=kreska pseudotaktowa	!	!	!	!	!
1d\	Su-	2g\	.	2G/	.	2b\	.
!	!	!LO:LB:g=original	!	!	!	!	!
=58-	=58-	=58-	=58-	=58-	=58-	=58-	=58-
!	!	!	!	!LO:TX:t=P:problem=cezura na 1. linii	!	!LO:TX:t=P:problem=kreska pseudotaktowa	!
.	.	1e	.	2A,/	-lis	1a	-lis
!LO:TX:t=P:problem=kreska pseudotaktowa	!	!	!	!	!	!	!
2c\	.	.	.	2a\	pec-	.	.
!	!	!LO:TX:t=P:problem=kreska pseudotaktowa	!	!	!	!	!
2e\	-sci-	1d	-lis	2a\	-ca-	2r	.
!	!	!	!	!LO:TX:t=P:problem=kreska pseudotaktowa	!	!	!
2B\	-pe	.	.	2g\	-ta	2dd\	pec-
=59-	=59-	=59-	=59-	=59-	=59-	=59-	=59-
!LO:TX:t=P:problem=kreska pseudotaktowa	!	!	!	!	!	!	!
1A	.	2r	.	2f\	.	2dd\	-ca-
.	.	2e\	pec-	4e\	mun-	2cc\	-ta
.	.	.	.	4f\	.	.	.
0r	.	2e\	-ca-	4g\	.	2bn/	mun-
.	.	.	.	4e\	.	.	.
.	.	2f\	-ta	1a\	.	2a/	.
=60-	=60-	=60-	=60-	=60-	=60-	=60-	=60-
.	.	2d\	mun-	.	.	1b	.
!	!	!	!	!LO:TX:t=P:problem=kreska pseudotaktowa	!	!	!
.	.	2e\	.	2g\	.	.	.
!	!	!	!	!LO:TX:t=P:problem=cezura na 3. linii	!	!	!
!	!	!LO:TX:t=P:problem=cezura na 2. linii	!	!LO:TX:t=P:problem=kreska pseudotaktowa	!	!LO:TX:t=P:problem=kreska pseudotaktowa	!
2r	.	2A,/	-di	1a,	-di	0a	-di
*lig	*ij	*lig	*	*	*	*	*
1d\	Su-	1f\	Su-	.	.	.	.
!	!	!	!	!LO:LB:g=original	!	!	!
=61-	=61-	=61-	=61-	=61-	=61-	=61-	=61-
.	.	.	.	2ra	.	.	.
1c	.	1e	.	1a	Su-	.	.
.	.	.	.	.	.	2r	.
*Xlig	*	*Xlig	*	*	*	*lig	*
2B\	.	2d\	.	2.g\	.	1dd\	ſu-
=62-	=62-	=62-	=62-	=62-	=62-	=62-	=62-
2c\	-sci-	2e\	.	.	.	.	.
.	.	.	.	8f\L	.	.	.
.	.	.	.	8e\J	.	.	.
!	!	!	!	!LO:TX:t=P:problem=kreska pseudotaktowa	!	!	!
2A\	-pe	2c\	-sci-	2f\	.	1cc	.
*	*Xij	*	*	*	*	*	*
!LO:TX:t=P:problem=kreska pseudotaktowa	!	!	!	!	!	!	!
1G	.	2d,\	-pe	1g	.	.	.
!	!	!LO:TX:t=P:problem=cezura na 3. linii	!	!	!	!	!
*	*	*	*ij	*	*	*Xlig	*
!	!	!	!	!	!	!LO:TX:t=P:problem=kreska pseudotaktowa	!
.	.	2G/	Su-	.	.	2b\	.
=63-	=63-	=63-	=63-	=63-	=63-	=63-	=63-
2r	.	2A/	.	2e\	-sci-	2cc\	-sci-
!	!	!	!	!LO:TX:t=P:problem=kreska pseudotaktowa	!	!	!
1c	de-	2F/	-sci-	2f\	-pe	2a/	.
!	!	!	!	!	!	!LO:TX:t=P:problem=cezura na 1. linii	!
!	!	!LO:TX:t=P:problem=kreska pseudotaktowa	!	!	!	!LO:TX:t=P:problem=kreska pseudotaktowa	!
.	.	1G	-pe	2d/	de-	1g,	-pe
*	*	*	*Xij	*	*	*	*
!LO:TX:t=P:problem=kreska pseudotaktowa	!	!	!	!LO:TX:t=P:problem=kreska pseudotaktowa	!	!	!
2B\	-pre-	.	.	2g\	-pre-	.	.
=64-	=64-	=64-	=64-	=64-	=64-	=64-	=64-
1.A	-ca-	1r	.	2a\	-ca-	2.cc\	de-
.	.	.	.	2.cc\	-ti-	.	.
.	.	.	.	.	.	4dd\	-pre-
.	.	2.c\	de-	.	.	2ee\	-ca-
.	.	.	.	4b\	.	.	.
*	*	*	*	*	*	*custos:gg	*
!	!	!	!	!LO:TX:t=P:problem=kreska pseudotaktowa	!	!LO:TX:t=P:problem=kreska pseudotaktowa	!
2F/	-ti-	.	.	2a\	-o-	2ff\	-ti-
.	.	4d\	-pre-	.	.	.	.
!	!	!	!	!	!	!LO:LB:g=original	!
=65-	=65-	=65-	=65-	=65-	=65-	=65-	=65-
!	!	!	!	!LO:TX:t=P:problem=cezura na 3. linii	!	!	!
2c\	-o-	2e\	-ca-	2g,\	-nem	2gg\	-o-
2A\	-nem	2f\	-ti-	2.a\	no-	2.ff\	-nem
1B-X	no-	2d\	-o-	.	.	.	.
.	.	.	.	8g\L	.	4ee\	no-
.	.	.	.	8f\J	.	.	.
*	*	*	*	*2\left	*	*	*
!	!	!LO:TX:t=P:problem=kreska pseudotaktowa	!	!LO:TX:t=P:problem=kreska pseudotaktowa	!	!	!
.	.	2d\	-nem	2g\	.	1dd\	.
*	*	*	*	*2\right	*	*	*
=66-	=66-	=66-	=66-	=66-	=66-	=66-	=66-
!	!	!	!	!LO:TX:t=P:problem=kreska pseudotaktowa	!	!	!
0A	.	2f\	no-	1a	-stram	.	.
.	.	4e\	.	.	.	4cc\	.
!	!	!	!	!	!	!LO:TX:t=P:problem=kreska pseudotaktowa	!
.	.	4d\	.	.	.	4b\	.
.	.	1e	.	2r	.	1cc	.
.	.	.	.	2.a\	Qui	.	.
=67-	=67-	=67-	=67-	=67-	=67-	=67-	=67-
!LO:TX:t=P:problem=kreska pseudotaktowa	!	!	!	!	!	!LO:TX:t=P:problem=cezura na 2. linii	!
1D	-stram	2d\	-stram	.	.	2dd,\	-stram
.	.	.	.	4g\	.	.	.
!	!	!	!	!LO:TX:t=P:problem=kreska pseudotaktowa	!	!LO:TX:t=P:problem=kreska pseudotaktowa	!
.	.	2A/	qui	2f\	.	2dd\	Qui
1r	.	2c/	se-	2e/	se-	2g/	se-
.	.	2B/	.	2d/	.	1dd\	-des
=68-	=68-	=68-	=68-	=68-	=68-	=68-	=68-
!	!	!LO:TX:t=P:problem=kreska pseudotaktowa	!	!	!	!	!
2rG	.	1A	-des	2e\	-des	.	.
!	!	!	!	!LO:TX:t=P:problem=kreska pseudotaktowa	!	!	!
2A/	ad	.	.	2a\	ad	2cc\	ad
2d\	dex-	2r	.	2a\	dex-	1ff	dex-
!	!	!	!	!LO:TX:t=P:problem=kreska pseudotaktowa	!	!	!
2d\	-te-	2d\	ad	2b\	-te-	.	.
=69-	=69-	=69-	=69-	=69-	=69-	=69-	=69-
!LO:TX:t=P:problem=cezura na 4. linii	!	!	!	!	!	!	!
2c,\	-ra(m)	2g\	dex-	2cc\	-ram	2ee\	-te-
!LO:TX:t=P:problem=kreska pseudotaktowa	!	!	!	!	!	!	!
2Bny\	P[a-	2g\	-te-	2g\	Pa-	1dd	-ram
!LO:TX:t=P:problem=cezura na 1. linii	!	!	!	!LO:TX:t=P:problem=kreska pseudotaktowa	!	!	!
2A,\	-t]ris	2f\	ram	1a	-tris	.	.
!	!	!LO:TX:t=P:problem=kreska pseudotaktowa	!	!	!	!	!
2A\	mi-	2e\	P[a-	.	.	2cc\	Pa-
=70-	=70-	=70-	=70-	=70-	=70-	=70-	=70-
!	!	!LO:TX:t=P:problem=cezura na 3. linii	!	!	!	!LO:TX:t=P:problem=kreska pseudotaktowa	!
1B	-ſe-	2d,\	-t]ris	00r	.	1dd	-tris
!	!	!LO:TX:t=P:problem=kreska pseudotaktowa	!	!	!	!	!
.	.	2d\	mi-	.	.	.	.
!	!	!LO:LB:g=original	!	!	!	!	!
2c\	-re-	2e\	-se-	.	.	00r	.
!LO:TX:t=P:problem=kreska pseudotaktowa	!	!	!	!	!	!	!
2d\	-re	2f\	-re-	.	.	.	.
!LO:LB:g=original	!	!	!	!	!	!	!
=71-	=71-	=71-	=71-	=71-	=71-	=71-	=71-
2B\	no-	2.g\	.	.	.	.	.
2.c\	.	.	.	.	.	.	.
.	.	4f\	.	.	.	.	.
.	.	4e\	.	.	.	.	.
4B\	.	4d\	.	.	.	.	.
2A/	.	2f\	.	.	.	.	.
=72-	=72-	=72-	=72-	=72-	=72-	=72-	=72-
!	!	!	!	!LO:TX:t=P:problem=kreska pseudotaktowa	!	!	!
2G/	.	4e\	.	1r	.	.	.
.	.	4d\	.	.	.	.	.
2F/	.	1d	.	.	.	.	.
!	!	!	!	!	!	!LO:TX:t=P:problem=kreska pseudotaktowa	!
1E	.	.	.	2r	.	1r	.
.	.	2c\	-re	1g\	Quo-	.	.
=73-	=73-	=73-	=73-	=73-	=73-	=73-	=73-
!LO:TX:t=P:problem=kreska pseudotaktowa	!	!	!	!	!	!	!
1D	-bis	1d	no-	.	.	2r	.
.	.	.	.	2f\	-ni-	1dd	Quo-
!LO:TX:t=P:problem=kreska pseudotaktowa	!	!LO:TX:t=P:problem=kreska pseudotaktowa	!	!	!	!	!
00r	.	1A	-bis.	2e\	-am	.	.
!	!	!	!	!	!	!LO:TX:t=P:problem=kreska pseudotaktowa	!
.	.	.	.	2f\	Tu	2cc\	-ni-
=74-	=74-	=74-	=74-	=74-	=74-	=74-	=74-
.	.	0r	.	2d/	so-	2b\	-am
!	!	!	!	!LO:TX:t=P:problem=kreska pseudotaktowa	!	!LO:TX:t=P:problem=kreska pseudotaktowa	!
.	.	.	.	2c/	-lus	2cc\	Tu
!	!	!	!	!LO:LB:g=original	!	!	!
.	.	.	.	2f\	San-	2a/	so-
.	.	.	.	4e/	.	2g/	-lus
.	.	.	.	4d/	.	.	.
=75-	=75-	=75-	=75-	=75-	=75-	=75-	=75-
.	.	2rf	.	1e	.	2cc\	ſan-
!	!	!LO:TX:t=P:problem=kreska pseudotaktowa	!	!	!	!	!
.	.	2g\	Tu	.	.	2b\	.
!	!	!	!	!LO:TX:t=P:problem=kreska pseudotaktowa	!	!LO:TX:t=P:problem=kreska pseudotaktowa	!
2r	.	2f\	so-	1a	-ctus	1cc	-ctus
2A/	Tu	1e\	-lus	.	.	.	.
=76-	=76-	=76-	=76-	=76-	=76-	=76-	=76-
2G/	so-	.	.	1rb	.	2r	.
2F/	-l(us)	1d	Do-	.	.	2dd\	Tu
!	!	!	!	!	!	!LO:TX:t=P:problem=kreska pseudotaktowa	!
2E/	Do-	.	.	2r	.	1gg	so-
2E/	-mi-	2c\	-mi-	2e\	Tu	.	.
=77-	=77-	=77-	=77-	=77-	=77-	=77-	=77-
!LO:TX:t=P:problem=cezura na 1. linii	!	!LO:TX:t=P:problem=kreska pseudotaktowa	!	!LO:TX:t=P:problem=kreska pseudotaktowa	!	!	!
2D,/	-n(us)	1d	-n(us)	1a	so-	2ff\	-lus
2d\	Tu	.	.	.	.	1dd	.
1e	so-	2rf	.	1.g	.	.	.
.	.	2g\	Tu	.	.	2cc\	Do-
=78-	=78-	=78-	=78-	=78-	=78-	=78-	=78-
!LO:TX:t=P:problem=kreska pseudotaktowa	!	!	!	!	!	!	!
1d	-l(us)	1a	so-	.	.	2dd\	.
*	*	*	*	*2\left	*	*	*
!	!	!	!	!	!	!LO:TX:t=P:problem=kreska pseudotaktowa	!
.	.	.	.	2f\	.	2dd\	.
*	*	*	*	*2\right	*	*	*
!	!	!	!	!LO:TX:t=P:problem=cezura na 3. linii	!	!	!
2r	.	2g\	-lus	2e,\	-lus	1ee	-mi-
2A\	al-	2.a\	al-	2cc\	al-	.	.
=79-	=79-	=79-	=79-	=79-	=79-	=79-	=79-
!	!	!	!	!	!	!LO:TX:t=P:problem=kreska pseudotaktowa	!
2B\	-tiſ-	.	.	1b	-tiſ-	0dd	-n(us)
.	.	4g\	.	.	.	.	.
2c\	-si-	1g	-tiſ-	.	.	.	.
!LO:TX:t=P:problem=kreska pseudotaktowa	!	!	!	!LO:TX:t=P:problem=kreska pseudotaktowa	!	!	!
1d	-m(us)	.	.	1a	-si-	.	.
!	!	!LO:TX:t=P:problem=kreska pseudotaktowa	!	!	!	!	!
.	.	2f\	-si-	.	.	.	.
=80-	=80-	=80-	=80-	=80-	=80-	=80-	=80-
!	!	!	!	!LO:TX:t=P:problem=cezura na 5. linii	!	!	!
2r	.	2g\	-m(us)	2b,\	-mus	2r	.
!	!	!	!	!	!	!LO:TX:t=P:problem=kreska pseudotaktowa	!
1A	JE-	1c	Je-	1a	Je-	2cc\	Tu
.	.	.	.	.	.	2ee\	so-
!LO:TX:t=P:problem=kreska pseudotaktowa	!	!	!	!	!	!	!
*	*	*lig	*	*	*	*	*
*	*	*	*	*	*	*custos:gg	*
!	!	!	!	!	!	!LO:TX:t=P:problem=kreska pseudotaktowa	!
2d\	-SU	1f\	-su	2a\	-su	2ff\	-lus
!	!	!	!	!	!	!LO:LB:g=original	!
=81-	=81-	=81-	=81-	=81-	=81-	=81-	=81-
!	!	!	!	!LO:SIC:l:v:s=Chris	!	!	!
2.c\	Chri-	.	.	2cc\	X-	2gg\	al-
!	!	!	!	!LO:TX:t=P:problem=cezura na 3. linii	!	!	!
!	!	!	!	!LO:TX:t=P:problem=kreska pseudotaktowa	!	!	!
.	.	1e	.	2g,\	-te	1cc	-tiſ-
4B\	.	.	.	.	.	.	.
*	*	*	*	*	*ij	*	*
2A\	.	.	.	1a	Je-	.	.
*	*	*Xlig	*	*	*	*	*
2D/	.	1d\	Chri-	.	.	1ff\	.
=82-	=82-	=82-	=82-	=82-	=82-	=82-	=82-
*lig	*	*	*	*	*	*	*
!	!	!	!	!LO:TX:t=P:problem=kreska pseudotaktowa	!	!	!
1A	.	.	.	1a	-su	.	.
!	!	!LO:TX:t=P:problem=kreska pseudotaktowa	!	!	!	!	!
.	.	2c\	.	.	.	1ee	.
*	*	*lig	*	*	*	*	*
!	!	!	!	!LO:SIC:l:v:s=Chris	!	!	!
1B	.	1d	.	(2f\	X-	.	.
.	.	.	.	2g\)	.	1dd\	.
*Xlig	*	*	*	*	*	*	*
=83-	=83-	=83-	=83-	=83-	=83-	=83-	=83-
!	!	!	!	!LO:TX:t=P:problem=kreska pseudotaktowa	!	!	!
1A	.	1e	.	1a	-te	.	.
!	!	!	!	!	!	!LO:TX:t=P:problem=kreska pseudotaktowa	!
.	.	.	.	.	.	2cc\	-si-
*	*	*Xlig	*	*	*Xij	*	*
!	!	!	!	!	!	!LO:TX:t=P:problem=cezura na 4. linii	!
!LO:TX:t=P:problem=kreska pseudotaktowa	!	!	!	!	!	!LO:TX:t=P:problem=kreska pseudotaktowa	!
1D	-ste	2.d\	.	2ra	.	1dd,	-mus
.	.	.	.	2a\	Cum	.	.
.	.	8c/L	.	.	.	.	.
.	.	8B/J	.	.	.	.	.
=84-	=84-	=84-	=84-	=84-	=84-	=84-	=84-
!	!	!LO:TX:t=P:problem=cezura na 2. linii	!	!	!	!	!
0r	.	2A,/	ste.	2cc\	San-	1ee	Je-
.	.	2e\	Cum	2g\	-cto	.	.
.	.	2f\	S(an)-	2.a\	ſpi-	2.cc\	.
.	.	2c\	-cto	.	.	.	.
!	!	!	!	!	!	!LO:TX:t=P:problem=kreska pseudotaktowa	!
.	.	.	.	4g\	.	4b/	.
=85-	=85-	=85-	=85-	=85-	=85-	=85-	=85-
!LO:TX:t=P:problem=kreska pseudotaktowa	!	!	!	!	!	!	!
1r	.	2d\	Sp(i-	2f\	.	2a/	.
!	!	!	!	!	!	!LO:TX:t=P:problem=kreska pseudotaktowa	!
.	.	2e\	-ri-	1g	.	2g/	-su
*	*	*	*	*	*	*	*ij
2r	.	0d	-t)u	.	.	2a/	Je-
!	!	!	!	!LO:TX:t=P:problem=kreska pseudotaktowa	!	!	!
2D/	in	.	.	2f\	.	2a/	-su
*	*	*	*	*	*	*	*Xij
=86-	=86-	=86-	=86-	=86-	=86-	=86-	=86-
!	!	!	!	!	!	!LO:SIC:l:v:s=Chris	!
1.G	glo-	.	.	2.g\	.	2.b\	X-
.	.	.	.	8f\L	-ri-	4cc\	.
.	.	.	.	8e\J	.	.	.
!	!	!LO:LB:g=original	!	!LO:TX:t=P:problem=kreska pseudotaktowa	!	!LO:TX:t=P:problem=kreska pseudotaktowa	!
.	.	2rA	.	1d	-tu	0dd	-te
2F/	-ri-	2A/	in	.	.	.	.
=87-	=87-	=87-	=87-	=87-	=87-	=87-	=87-
2G/	-a	1.d	glo-	00r	.	.	.
2D/	De-	.	.	.	.	.	.
2F/	-i	.	.	.	.	00r	.
!LO:TX:t=P:problem=kreska pseudotaktowa	!	!LO:TX:t=P:problem=kreska pseudotaktowa	!	!	!	!	!
2E/	Pa-	2c/	-ri-	.	.	.	.
!LO:PB:g=original	!	!	!	!	!	!	!
=88-	=88-	=88-	=88-	=88-	=88-	=88-	=88-
4D/	-tris	2d\	-a	.	.	.	.
4E/	.	.	.	.	.	.	.
4F/	.	2A/	De-	.	.	.	.
4G/	.	.	.	.	.	.	.
2A/	.	2c/	-i	.	.	.	.
!	!	!LO:TX:t=P:problem=kreska pseudotaktowa	!	!	!	!	!
4D/	a-	2B/	Pa-	.	.	.	.
!LO:TX:t=P:problem=kreska pseudotaktowa	!	!	!	!	!	!	!
4E/	.	.	.	.	.	.	.
=89-	=89-	=89-	=89-	=89-	=89-	=89-	=89-
!	!	!	!	!LO:TX:t=P:problem=kreska pseudotaktowa	!	!	!
4F/	.	4A/	tris	1r	.	.	.
4G/	.	4B/	.	.	.	.	.
4A/	.	4c/	.	.	.	.	.
4B/	.	4d/	.	.	.	.	.
!	!	!	!	!LO:LB:g=original	!	!	!
!	!	!	!	!LO:TX:t=P:problem=kreska pseudotaktowa	!	!LO:TX:t=P:problem=kreska pseudotaktowa	!
2c\	.	4e\	a-	1g	in	0r	.
.	.	4f\	.	.	.	.	.
!LO:TX:t=P:problem=kreska pseudotaktowa	!	!	!	!	!	!	!
2B\	.	1g\	.	.	.	.	.
=90-	=90-	=90-	=90-	=90-	=90-	=90-	=90-
1A	.	.	.	1.cc	glo-	.	.
!	!	!LO:TX:t=P:problem=kreska pseudotaktowa	!	!	!	!	!
.	.	2f\	.	.	.	.	.
1G	.	2.g\	.	.	.	1dd	in
.	.	.	.	2b\	-ri-	.	.
.	.	4f\	.	.	.	.	.
=91-	=91-	=91-	=91-	=91-	=91-	=91-	=91-
1C	.	4e\	.	2cc\	-a	1.gg	glo-
.	.	4d\	.	.	.	.	.
.	.	2e\	.	2g\	De-	.	.
!LO:TX:t=P:problem=kreska pseudotaktowa	!	!LO:TX:t=P:problem=kreska pseudotaktowa	!	!	!	!	!
1D	-men	1d	-men	2b-X\	-i	.	.
!	!	!	!	!LO:TX:t=P:problem=kreska pseudotaktowa	!	!LO:TX:t=P:problem=kreska pseudotaktowa	!
.	.	.	.	2a\	Pa-	2ff\	-ri-
=92-	=92-	=92-	=92-	=92-	=92-	=92-	=92-
00r	.	2r	.	2g\	-tris	2gg\	-a
.	.	1d	in	4f\	a-	2dd\	De-
.	.	.	.	4g\	.	.	.
.	.	.	.	4a\	.	2ff\	-i
.	.	.	.	4f\	.	.	.
!	!	!	!	!	!	!LO:TX:t=P:problem=kreska pseudotaktowa	!
.	.	1g\	glo-	4g\	.	2ee\	Pa-
.	.	.	.	4a\	.	.	.
=93-	=93-	=93-	=93-	=93-	=93-	=93-	=93-
.	.	.	.	2bny\	.	1.dd	-tris
!	!	!	!	!LO:TX:t=P:problem=kreska pseudotaktowa	!	!	!
.	.	2f\	-ri-	2a\	.	.	.
.	.	2g\	-a	2b\	.	.	.
*	*	*	*	*lig	*	*	*
!	!	!LO:TX:t=P:problem=kreska pseudotaktowa	!	!	!	!	!
.	.	2d\	De-	1a\	.	2dd\	a-
=94-	=94-	=94-	=94-	=94-	=94-	=94-	=94-
!LO:TX:t=P:problem=kreska pseudotaktowa	!	!	!	!	!	!	!
1r	.	2f\	-i	.	.	4cc\	.
.	.	.	.	.	.	4b\	.
.	.	2e\	Pa-	1g	.	4a/	.
.	.	.	.	.	.	4g/	.
1D	in	2d\	tris	.	.	1a	.
*	*	*	*	*Xlig	*	*	*
!	!	!	!	!LO:TX:t=P:problem=cezura na 2. linii	!	!	!
.	.	2.d\	a-	2f,\	-men	.	.
=95-	=95-	=95-	=95-	=95-	=95-	=95-	=95-
!	!	!	!	!	!	!LO:TX:t=P:problem=kreska pseudotaktowa	!
1.G	glo-	.	.	2g\	a-	1b	-men
.	.	4c/	.	.	.	.	.
.	.	4B/	.	4G/	.	.	.
!	!	!	!	!LO:TX:t=P:problem=kreska pseudotaktowa	!	!	!
.	.	4A/	.	4A/	.	.	.
.	.	2G/	.	4B/	.	2.dd\	a-
.	.	.	.	4c/	.	.	.
!LO:TX:t=P:problem=kreska pseudotaktowa	!	!	!	!	!	!	!
2F/	-ri-	2A/	.	2.d/	.	.	.
.	.	.	.	.	.	4cc\	.
=96-	=96-	=96-	=96-	=96-	=96-	=96-	=96-
2G/	-a	2B/	.	.	.	2b/	.
.	.	.	.	4e/	.	.	.
*	*	*	*	*	*	*lig	*
!	!	!LO:TX:t=P:problem=kreska pseudotaktowa	!	!LO:TX:t=P::problem=kreska pseudotaktowa&colon;między nutą a kropką, połączone ligaturą	!	!	!
2D/	De-	2d\	.	2.f\	.	1a	.
2F/	-i	4c/	.	.	.	.	.
.	.	4B/	.	4e/	.	.	.
2E/	Pa-	4A/	.	2c/	.	1g/	.
.	.	4G/	.	.	.	.	.
*	*	*	*	*	*	*Xlig	*
=97-	=97-	=97-	=97-	=97-	=97-	=97-	=97-
0D	-tris	0A	.	0d	.	.	.
.	.	.	.	.	.	4f#X/	.
.	.	.	.	.	.	4e/	.
!	!	!	!	!	!	!LO:TX:t=P:problem=# above	!
.	.	.	.	.	.	1f#X	.
=98-	=98-	=98-	=98-	=98-	=98-	=98-	=98-
*lig	*	*lig	*	*lig	*	*	*
1E	a-	1G	.	1B	.	[0gl;	-men.
1C	.	1c	.	1e	.	.	.
*Xlig	*	*Xlig	*	*Xlig	*	*	*
=99-	=99-	=99-	=99-	=99-	=99-	=99-	=99-
!	!	!	!	!LO:TX:t=P:problem=nadmiarowa wartość	!	!	!
0ryy	.	0ryy	.	0d	.	0g_	.
=100-	=100-	=100-	=100-	=100-	=100-	=100-	=100-
0Gl;	-men.	0Bl;	-men.	0dl;	-men.	0g]	.
==	==	==	==	==	==	==	==
*-	*-	*-	*-	*-	*-	*-	*-
!!!system-decoration: [s1,s2,s3,s4]
!!!RDF**kern: l = terminal long
!!!ENC: Marta Lawrence
!!!END: 2021-03-17
!!!ENC: Kamil Watkowski
!!!END: 2021-03-03
